X: 1
T:Tom Billy's
T:(Ballydesmond Polka)
M:2/4
L:1/8
R:polka
K:A dor
|: "Am"cd/c/ "G"Bc/B/ | "F"AB/A/ "Em"G>A | "G"B/c/d ed | "Em"g2 ed |
   "Am"ea ge | "G"dB GA/B/ | "F"ce "G"dB | "Am"A2 A2 :|
|: "Am"ea ag/e/ | "G"dg gd | "Am"ea ab | "Em"g>f gd |
   "Am"ea ge | "G"dB GA/B/ | "F"ce "G"dB | "Am"A2 A2 :|
N:HOI - abc by Peter Ostapenko 3/15/2007
N:A Dorian
